X: 145120
T: A WELSH HORNPIPE
R: Clog, Hornpipe.
%R: clog, hornpipe
B: James Kerr "Merry Melodies" v.1 p.45 s.1 #20
Z: 2016 John Chambers <jc:trillian.mit.edu>
M: C
L: 1/8
K: G
ug>uf |\
ve>vg (3fe^d ez E>F | G>AB>c d2D2 |\
E>GB>^d e>de>f | (3gfe f>^d e>de>f |\
g>fg>f edBd | g>ed>B c2c2 |
(3BdB G>B (3AcA F>A | G2g2 G2 :|\
ub>ua |\
g>be>b g>be>b | f>ad>a f>ad'>a |\
f>ad>a f>ad>a | g>ab>a g>fe>f |\
g>bf>b e>bf>b |
gbfb e>bf>b |\
g>bg>b f>bf>b | (3gfe f>^d e>de>f |\
g>fg>f edBd | g>ed>B c2c2 |\
(3BdB G>B (3AcA F>A | G2g2 G2 |]

%%sep 1 1 500
%%sep 1 1 500

